Papirus/24x24/panel/solaar-indicator.svg

<?xml version="1.0" encoding="UTF-8" standalone="no"?>
<svg xmlns:dc="http://purl.org/dc/elements/1.1/" xmlns:cc="http://creativecommons.org/ns#" xmlns:rdf="http://www.w3.org/1999/02/22-rdf-syntax-ns#" xmlns:svg="http://www.w3.org/2000/svg" xmlns="http://www.w3.org/2000/svg" version="1.1" id="svg11197" viewBox="0 0 24 24" height="24" width="24">
    <metadata id="metadata11202">
        <rdf:RDF>
            <cc:Work rdf:about="">
                <dc:format>
                    image/svg+xml
                </dc:format>
                <dc:type rdf:resource="http://purl.org/dc/dcmitype/StillImage"/>
                <dc:title/>
            </cc:Work>
        </rdf:RDF>
    </metadata>
    <g transform="translate(0,-1028.3622)" id="layer1">
        <path id="rect11755" transform="translate(0,1028.3622)" d="M 6 4 C 4.892 4 4 4.892 4 6 L 4 18 C 4 19.108 4.892 20 6 20 L 18 20 C 19.108 20 20 19.108 20 18 L 20 6 C 20 4.892 19.108 4 18 4 L 6 4 z M 9.8652344 6.3046875 L 11.451172 9.0527344 A 3 3 0 0 1 12 9 A 3 3 0 0 1 12.546875 9.0527344 L 14.134766 6.3046875 L 15.865234 7.3046875 L 14.279297 10.054688 A 3 3 0 0 1 14.826172 11 L 18 11 L 18 13 L 14.824219 13 A 3 3 0 0 1 14.28125 13.949219 L 15.865234 16.695312 L 14.134766 17.695312 L 12.548828 14.947266 A 3 3 0 0 1 12 15 A 3 3 0 0 1 11.453125 14.947266 L 9.8652344 17.695312 L 8.1347656 16.695312 L 9.7207031 13.945312 A 3 3 0 0 1 9.1738281 13 L 6 13 L 6 11 L 9.1757812 11 A 3 3 0 0 1 9.71875 10.050781 L 8.1347656 7.3046875 L 9.8652344 6.3046875 z M 12 10 A 2 2 0 0 0 10 12 A 2 2 0 0 0 12 14 A 2 2 0 0 0 14 12 A 2 2 0 0 0 12 10 z " style="opacity:1;fill:#ffffff;fill-opacity:1;stroke:none;stroke-width:2;stroke-miterlimit:4;stroke-dasharray:none;stroke-opacity:1"/>
    </g>
</svg>

<?xml version="1.0" encoding="UTF-8" standalone="no"?>
<svg id="svg11197" xmlns:rdf="http://www.w3.org/1999/02/22-rdf-syntax-ns#" xmlns="http://www.w3.org/2000/svg" viewBox="0 0 24 24" width="24" version="1.1" xmlns:cc="http://creativecommons.org/ns#" height="24" xmlns:dc="http://purl.org/dc/elements/1.1/">
 <metadata id="metadata11202">
  <rdf:RDF>
   <cc:Work rdf:about="">
    <dc:format>image/svg+xml</dc:format>
    <dc:type rdf:resource="http://purl.org/dc/dcmitype/StillImage"/>
    <dc:title/>
   </cc:Work>
  </rdf:RDF>
 </metadata>
 <g id="layer1" transform="translate(0 -1028.4)">
  <path id="rect11755" d="m6 4c-1.108 0-2 0.892-2 2v12c0 1.108 0.892 2 2 2h12c1.108 0 2-0.892 2-2v-12c0-1.108-0.892-2-2-2h-12zm3.8652 2.3047l1.5858 2.748a3 3 0 0 1 0.549 -0.0527 3 3 0 0 1 0.547 0.0527l1.588-2.748 1.73 1-1.586 2.7503a3 3 0 0 1 0.547 0.945h3.174v2h-3.176a3 3 0 0 1 -0.543 0.949l1.584 2.746-1.73 1-1.586-2.748a3 3 0 0 1 -0.549 0.053 3 3 0 0 1 -0.547 -0.053l-1.5878 2.748-1.7304-1 1.5859-2.75a3 3 0 0 1 -0.5469 -0.945h-3.1738v-2h3.1758a3 3 0 0 1 0.543 -0.949l-1.584-2.7463 1.7304-1zm2.1348 3.6953a2 2 0 0 0 -2 2 2 2 0 0 0 2 2 2 2 0 0 0 2 -2 2 2 0 0 0 -2 -2z" transform="translate(0 1028.4)" fill="#fff"/>
 </g>
</svg>
